assets/icons/ico-mini-functions.svg

<svg height="2048" viewBox="0 0 2048 2048" width="2048" xmlns="http://www.w3.org/2000/svg" xmlns:xlink="http://www.w3.org/1999/xlink"><linearGradient id="a" x1=".003762%" x2="99.984689%" y1="49.989781%" y2="49.989781%"><stop offset="0" stop-color="#f74c00"/><stop offset=".33" stop-color="#f74c00"/><stop offset="1" stop-color="#f49600"/></linearGradient><linearGradient id="b"><stop offset="0" stop-color="#cc3a00"/><stop offset=".15" stop-color="#cc3a00"/><stop offset=".74" stop-color="#f74c00"/><stop offset="1" stop-color="#f74c00"/></linearGradient><linearGradient id="c" x1=".00038%" x2="100%" xlink:href="#b" y1="50.000084%" y2="50.000084%"/><linearGradient id="d" x1="-.003094%" x2="99.996906%" xlink:href="#b" y1="49.999941%" y2="49.999941%"/><g fill="none" fill-rule="evenodd"><g fill-rule="nonzero"><path d="m512.049304 0c-282.320071 0-512.049304 229.721738-512.049304 511.95088v1024.29496c0 282.12347 229.72186 511.75428 512.049304 511.75428h1024.196416c282.12347 0 511.75428-229.62589 511.75428-511.85258v-1024.19666c0-282.22177-229.6259-511.95088-511.85258-511.95088z" fill="#000"/><path d="m32.5533503 1095.64624 585.5172257 325.67999c19.082447 10.42051 43.306206 10.42051 62.388653 0l585.517231-325.67999c31.19432-17.32248 43.3062-57.17805 25.98372-88.37237v-1.75928l-587.266798-973.4368918c-19.082447-31.19432621-58.868724-41.54624167-88.372376-22.53308503-8.661241 5.21025623-17.322483 13.87149743-22.533085 22.53308503l-585.44793657 973.5061818c-17.32248236 31.19433-6.90196987 70.98234 24.22375937 90.06305zm682.5404497-796.834187 429.61489 717.116127-429.61489 239.06758zm-131.678582 0v956.183707l-427.847992-239.06758z" fill="#fcc201" transform="translate(374 215)"/><path d="m285.191556 0c-110.488159 0-210.8732825 13.283586-285.191556 34.9304725v184.9103245c74.3182735 21.647797 174.703397 34.930472 285.191556 34.930472 126.456531 0 239.668663-17.399165 315.713912-44.824812v-165.1189109c-76.045249-27.4265588-189.257381-44.8275461-315.713912-44.8275461" fill="#a52b00" transform="translate(745.984748 1388.897589)"/><path d="m97.6739089 110.784342-12.9509495-26.8305474c.0665273-1.01887.1193846-2.0386514.1193846-3.062078 0-30.4157302-31.628714-58.4483252-84.842344-80.8917166v161.785256c24.8292605-10.473036 44.972448-22.160878 59.3787959-34.744561-4.2395199 17.048302-18.7406464 51.5386-30.3018135 75.793721-19.0012876 34.690792-25.88184982 64.889625-24.99967973 66.385122.5622923.941407 7.04460203-9.058647 16.60357113-25.263054 22.2456322-31.697064 64.3984167-92.21047 72.8236879-107.624752 9.5434763-17.473894 4.1693472-25.54739 4.1693472-25.54739" fill="#a52b00" transform="translate(1363.110116 1428.356474)"/><path d="m6.06135561 94.9754527c0 5.8580473 1.17835323 11.6286053 3.45212842 17.2870703l-7.75635294 13.806691s-6.21346662 8.06165 4.72799425 25.068941c9.65101366 14.995981 57.99265886 73.696745 83.50724156 104.43691 10.9596871 15.759677 18.3897831 25.467193 19.0404751 24.529432 1.024338-1.488207-6.813124-31.076447-28.5784836-64.833123-10.155892-18.130965-22.2857308-42.150962-29.5654567-59.893699 20.3254541 12.864373 46.9181434 24.533078 78.5131383 34.575964v-189.953639c-76.1363825 24.1940615-123.34068439 57.8085696-123.34068439 94.9754527" fill="#a52b00" transform="translate(616.582708 1416.046191)"/><path d="m681.962142 483.709976-39.911507 28.901435v12.38633l39.223377 29.589565c4.128777 2.752517 6.193165 7.569423 5.505035 12.386329-.688129 4.816906-4.128776 8.945683-8.257553 11.010071l-45.416541 20.643882c-.688129 4.128777-1.376259 8.257553-2.752518 11.6982l33.030212 36.470859c2.752518 3.440647 4.128777 8.945683 2.752518 13.074459-2.064388 4.816906-5.505035 8.257553-10.321941 9.633812l-48.857189 12.386329c-1.376259 3.440648-3.440647 6.881295-4.816906 11.010071l24.08453 41.287765c2.752518 4.128776 2.752518 9.633812 0 13.762588-2.064388 4.128777-6.881294 6.881294-11.6982 7.569424l-50.233447 2.752517c-2.064389 2.752518-4.816906 6.193165-6.881295 9.633812l15.138848 45.416542c2.064388 4.816906.688129 9.633811-2.752518 13.762588-2.752518 3.440647-8.257553 5.505035-13.074459 4.816906l-49.545318-6.881294c-2.752517 2.752517-5.505035 5.505035-8.945682 8.257553l6.193165 48.169059c.688129 4.816906-1.376259 9.633812-5.505036 12.386329-4.128776 2.752518-9.633812 4.128777-14.450718 2.064388l-46.7928-15.826976c-3.440647 2.752518-6.881294 4.816906-10.321941 6.881294l-4.128776 47.48093c0 5.505035-3.440648 9.633811-7.569424 11.6982-4.816906 2.064388-10.321941 2.064388-14.450718 0l-42.664023-24.772659c-.68813.688129-1.376259.688129-2.064389.688129l-77.070494 86.704307s-8.257553 12.38633-32.342083-2.75252c-20.643882-13.762586-105.2838-86.704304-150.012212-125.239552-22.0201413-15.826976-35.7827296-26.837047-35.0946002-28.213306 2.0643883-2.064388 40.5996352 4.816906 87.3924362 35.78273 41.975894 23.3964 105.971929 52.985965 112.165094 44.728412 0 0 11.010071-10.321941 17.891365-30.277694.688129.688129.688129.688129 0 0 0 0-216.7607657-379.159308-69.501071-761.071133 4.128776-42.6640238-20.643882-66.0604239-20.643882-66.0604239-6.193165-8.257553-66.748554 19.955753-106.6600597 41.9758939-44.728412 29.589565-81.19927095 36.470859-82.57552978 34.406471-.68812941-1.376259 12.38632948-11.6982 33.71834128-26.837047 41.9758943-36.470859 122.4870362-104.5956711 142.4427892-117.67012996 22.70827-15.13884712 30.965823-2.75251766 30.965823-2.75251766l69.501071 79.13488272c2.752518.6881294 5.505036 1.3762588 8.945683 1.3762588l37.847117-30.9658237c3.440648-3.440647 8.945683-4.1287764 13.762589-2.7525176s8.257553 4.8169059 9.633812 9.6338118l12.386329 46.7928006c3.440647 1.376258 7.569424 2.752517 11.010071 4.128776l44.040282-23.3964c4.128777-2.7525177 9.633812-2.7525177 14.450718 0 4.128776 2.0643882 6.881294 6.1931647 6.881294 11.0100706l2.752518 48.1690594c3.440647 2.064388 6.881294 4.816906 10.321941 6.881294l47.48093-15.138847c4.816905-1.376259 10.321941-.68813 13.762588 2.064388 4.128776 3.440647 6.193165 8.257553 5.505035 13.074459l-7.569423 47.480929c2.752517 2.752518 5.505035 5.505036 8.945682 8.257553l49.545318-5.505035c4.816906-.688129 9.633812 1.376259 13.074459 4.816906 3.440647 4.128776 4.128776 8.945682 2.064388 13.762588l-16.515106 44.728412c2.064388 3.440647 4.816906 6.881294 6.881294 10.321941l49.545318 3.440648c5.505035 0 9.633812 3.440647 11.6982 7.569423 2.752518 4.128777 2.752518 9.633812 0 13.762588l-25.460788 41.287765c1.376259 3.440647 2.752517 6.881294 4.128776 11.010071l48.169059 12.386329c4.816906 1.376259 8.945683 4.816906 10.321941 9.633812 1.376259 4.816906 0 9.633812-3.440647 13.762588l-33.718341 35.78273c.688129 3.440647 2.064388 7.569424 2.752518 11.6982l44.040282 21.332012c4.816906 2.064388 7.569424 6.193165 8.257553 11.010071.68813 4.816905-2.064388 9.633811-6.193164 12.386329z" fill="url(#a)" transform="matrix(-.0871559 -.99619468 -.99619468 .0871559 1558.558038 1744.665354)"/></g><path d="m72.2987602 82.4764297c-1.5164577-1.2940925-2.3111399-2.0614347-2.3111399-2.0614347l129.9031917-10.6416324c-105.9633919-139.7902401-190.85494789-28.4317588-199.890812-15.9811309v28.684198z" fill="#000" transform="translate(824.89705 1573.895495)"/><path d="m122.526864 83.9716657c1.515546-1.2940925 2.31114-2.0632573 2.31114-2.0632573l-124.838004-9.1342881c106.013515-145.527991 185.792494-29.9391031 194.827447-17.4884752v28.6860206z" fill="#000" transform="translate(1045.145212 1570.894738)"/><path d="m243.519058 36.5277199s-56.496207 14.1240517-115.914631 102.5211341l-5.844435 24.595331s146.110879 80.117466-18.507378 193.596915c0 0 20.455523-35.310129-4.626845-130.038682 0 0-66.7239682 43.589745-64.5323051 131.256273 0 0-101.0600249-84.013756 44.8073364-212.104293 0 0 52.3563987-135.396082 164.6182577-146.354398z" fill="url(#c)" fill-rule="nonzero" transform="matrix(-.00000005 -1 -1 .00000005 1403.71846 1759.600412)"/><path d="m15.0977457 19.2858259s39.6302155-43.3931083 79.2622536 0c0 0 31.1402397 57.8623383 0 86.7898621 0 0-50.9544361 40.503272-79.2622536 0 0 0-33.9699278-31.8246506 0-86.7898621" fill="#000" transform="translate(1089.028921 1424.370102)"/><path d="m44.4857963 30.5970854c0 16.8970203-9.9608668 30.5952627-22.2438095 30.5952627-12.2820313 0-22.2419868-13.6982424-22.2419868-30.5952627s9.9599555-30.5970854 22.2419868-30.5970854c12.2829427 0 22.2438095 13.7000651 22.2438095 30.5970854" fill="#fff" fill-rule="nonzero" transform="translate(1105.522829 1429.156624)"/><path d="m22.738668 6.72240679s67.9817769-30.09949769 86.536511 37.08304051c0 0 19.435994 78.3071767-55.8273318 82.7271407 0 0-95.9724507-18.484562-30.7091792-119.81018121" fill="#000" transform="translate(904.505605 1425.084373)"/><path d="m45.8801354 31.5567187c0 17.4237707-10.27072 31.5567188-22.940979 31.5567188-12.6657024 0-22.9391564-14.1329481-22.9391564-31.5567188 0-17.4283273 10.273454-31.5567187 22.9391564-31.5567187 12.670259 0 22.940979 14.1283914 22.940979 31.5567187" fill="#fff" fill-rule="nonzero" transform="translate(915.50813 1429.306082)"/><path d="m79.9360126 195.827069c-159.2320213-124.161768-31.3671834-182.9752369-31.3671834-182.9752369 7.8417958 69.704852 54.2390878 119.1517319 54.2390878 119.1517319 10.673556-83.6458229 11.544866-132.003564 11.544866-132.003564 147.687156 111.963419 13.940971 202.797554 13.940971 202.797554 8.277451 22.654077 39.862462 45.961637 69.051369 63.170022l20.4758 69.487024c-135.9244614-79.942752-137.8849104-139.627531-137.8849104-139.627531z" fill="url(#d)" fill-rule="nonzero" transform="matrix(-.00000007 -1 -1 .00000007 1021.026947 1769.761394)"/></g></svg>

<?xml version="1.0" encoding="UTF-8"?>
<svg width="2048px" height="2048px" viewBox="0 0 2048 2048" version="1.1" xmlns="http://www.w3.org/2000/svg" xmlns:xlink="http://www.w3.org/1999/xlink">
    <title>Icon</title>
    <defs>
        <linearGradient x1="0.00376187705%" y1="49.9897808%" x2="99.9846885%" y2="49.9897808%" id="linearGradient-1">
            <stop stop-color="#F74C00" offset="0%"></stop>
            <stop stop-color="#F74C00" offset="33%"></stop>
            <stop stop-color="#F49600" offset="100%"></stop>
        </linearGradient>
        <linearGradient x1="0.000380010515%" y1="50.0000839%" x2="100%" y2="50.0000839%" id="linearGradient-2">
            <stop stop-color="#CC3A00" offset="0%"></stop>
            <stop stop-color="#CC3A00" offset="15%"></stop>
            <stop stop-color="#F74C00" offset="74%"></stop>
            <stop stop-color="#F74C00" offset="100%"></stop>
        </linearGradient>
        <linearGradient x1="-0.0030939853%" y1="49.9999405%" x2="99.996906%" y2="49.9999405%" id="linearGradient-3">
            <stop stop-color="#CC3A00" offset="0%"></stop>
            <stop stop-color="#CC3A00" offset="15%"></stop>
            <stop stop-color="#F74C00" offset="74%"></stop>
            <stop stop-color="#F74C00" offset="100%"></stop>
        </linearGradient>
    </defs>
    <g id="Page-1" stroke="none" stroke-width="1" fill="none" fill-rule="evenodd">
        <g id="mini-functions" transform="translate(-138.000000, -133.000000)">
            <g id="Icon" transform="translate(138.000000, 133.000000)">
                <path d="M512.049304,0 C229.729233,0 0,229.721738 0,511.95088 L0,1536.24584 C0,1818.36931 229.72186,2048.00012 512.049304,2048.00012 L1536.24572,2048.00012 C1818.36919,2048.00012 2048,1818.37423 2048,1536.14754 L2048,511.95088 C2048,229.72911 1818.3741,0 1536.14742,0 L512.049304,0 Z" id="Path" fill="#000000" fill-rule="nonzero"></path>
                <g id="Elements" transform="translate(374.000000, 215.000000)">
                    <g id="pyramid" transform="translate(-0.000000, 0.000000)" fill="#FCC201" fill-rule="nonzero">
                        <path d="M32.5533503,1095.64624 L618.070576,1421.32623 C637.153023,1431.74674 661.376782,1431.74674 680.459229,1421.32623 L1265.97646,1095.64624 C1297.17078,1078.32376 1309.28266,1038.46819 1291.96018,1007.27387 L1291.96018,1005.51459 L704.693382,32.0776982 C685.610935,0.88337199 645.824658,-9.46854347 616.321006,9.54461317 C607.659765,14.7548694 598.998523,23.4161106 593.787921,32.0776982 L8.33998443,1005.58388 C-8.98249793,1036.77821 1.43801456,1076.56622 32.5637438,1095.64693 L32.5533503,1095.64624 Z M715.0938,298.812053 L1144.70869,1015.92818 L715.0938,1254.99576 L715.0938,298.812053 Z M583.415218,298.812053 L583.415218,1254.99576 L155.567226,1015.92818 L583.415218,298.812053 Z" id="Shape"></path>
                    </g>
                    <g id="ferris" transform="translate(114.904219, 844.023716)">
                        <g id="Group" transform="translate(257.080529, 329.873873)" fill="#A52B00" fill-rule="nonzero">
                            <path d="M285.191556,0 C174.703397,0 74.3182735,13.283586 0,34.9304725 L0,219.840797 C74.3182735,241.488594 174.703397,254.771269 285.191556,254.771269 C411.648087,254.771269 524.860219,237.372104 600.905468,209.946457 L600.905468,44.8275461 C524.860219,17.4009873 411.648087,0 285.191556,0" id="Path"></path>
                        </g>
                        <g id="Group" transform="translate(874.205897, 369.332758)" fill="#A52B00" fill-rule="nonzero">
                            <path d="M97.6739089,110.784342 L84.7229594,83.9537946 C84.7894867,82.9349246 84.842344,81.9151432 84.842344,80.8917166 C84.842344,50.4759864 53.21363,22.4433914 0,0 L0,161.785256 C24.8292605,151.31222 44.972448,139.624378 59.3787959,127.040695 C55.139276,144.088997 40.6381495,178.579295 29.0769824,202.834416 C10.0756948,237.525208 3.19513258,267.724041 4.07730267,269.219538 C4.63959497,270.160945 11.1219047,260.160891 20.6808738,243.956484 C42.926506,212.25942 85.0792905,151.746014 93.5045617,136.331732 C103.048038,118.857838 97.6739089,110.784342 97.6739089,110.784342" id="Path"></path>
                        </g>
                        <g id="Group" transform="translate(127.678489, 357.022475)" fill="#A52B00" fill-rule="nonzero">
                            <path d="M6.06135561,94.9754527 C6.06135561,100.8335 7.23970884,106.604058 9.51348403,112.262523 L1.75713109,126.069214 C1.75713109,126.069214 -4.45633553,134.130864 6.48512534,151.138155 C16.136139,166.134136 64.4777842,224.8349 89.9923669,255.575065 C100.952054,271.334742 108.38215,281.042258 109.032842,280.104497 C110.05718,278.61629 102.219718,249.02805 80.4543584,215.271374 C70.2984664,197.140409 58.1686276,173.120412 50.8889017,155.377675 C71.2143558,168.242048 97.8070451,179.910753 129.40204,189.953639 L129.40204,0 C53.2656575,24.1940615 6.06135561,57.8085696 6.06135561,94.9754527" id="Path"></path>
                        </g>
                        <g id="Group" transform="translate(534.826909, 386.988142) scale(-1, 1) rotate(-84.999991) translate(-534.826909, -386.988142) translate(190.696564, -119.774169)" fill="url(#linearGradient-1)" fill-rule="nonzero">
                            <path d="M681.962142,483.709976 L642.050635,512.611411 C642.050635,516.740188 642.050635,520.868964 642.050635,524.997741 L681.274012,554.587306 C685.402789,557.339823 687.467177,562.156729 686.779047,566.973635 C686.090918,571.790541 682.650271,575.919318 678.521494,577.983706 L633.104953,598.627588 C632.416824,602.756365 631.728694,606.885141 630.352435,610.325788 L663.382647,646.796647 C666.135165,650.237294 667.511424,655.74233 666.135165,659.871106 C664.070777,664.688012 660.63013,668.128659 655.813224,669.504918 L606.956035,681.891247 C605.579776,685.331895 603.515388,688.772542 602.139129,692.901318 L626.223659,734.189083 C628.976177,738.317859 628.976177,743.822895 626.223659,747.951671 C624.159271,752.080448 619.342365,754.832965 614.525459,755.521095 L564.292012,758.273612 C562.227623,761.02613 559.475106,764.466777 557.410717,767.907424 L572.549565,813.323966 C574.613953,818.140872 573.237694,822.957777 569.797047,827.086554 C567.044529,830.527201 561.539494,832.591589 556.722588,831.90346 L507.17727,825.022166 C504.424753,827.774683 501.672235,830.527201 498.231588,833.279719 L504.424753,881.448778 C505.112882,886.265684 503.048494,891.08259 498.919717,893.835107 C494.790941,896.587625 489.285905,897.963884 484.468999,895.899495 L437.676199,880.072519 C434.235552,882.825037 430.794905,884.889425 427.354258,886.953813 L423.225482,934.434743 C423.225482,939.939778 419.784834,944.068554 415.656058,946.132943 C410.839152,948.197331 405.334117,948.197331 401.20534,946.132943 L358.541317,921.360284 C357.853187,922.048413 357.165058,922.048413 356.476928,922.048413 L279.406434,1008.75272 C279.406434,1008.75272 271.148881,1021.13905 247.064351,1006.0002 C226.420469,992.237614 141.780551,919.295896 97.052139,880.760648 C75.0319977,864.933672 61.2694094,853.923601 61.9575388,852.547342 C64.0219271,850.482954 102.557174,857.364248 149.349975,888.330072 C191.325869,911.726472 255.321904,941.316037 261.515069,933.058484 C261.515069,933.058484 272.52514,922.736543 279.406434,902.78079 C279.406434,902.78079 279.406434,902.78079 279.406434,902.78079 C280.094563,903.468919 280.094563,903.468919 279.406434,902.78079 C279.406434,902.78079 62.6456683,523.621482 209.905363,141.709657 C214.034139,99.0456332 189.261481,75.6492331 189.261481,75.6492331 C183.068316,67.3916801 122.512927,95.6049861 82.6014213,117.625127 C37.8730093,147.214692 1.40215035,154.095986 0.0258915209,152.031598 C-0.662237894,150.655339 12.412221,140.333398 33.7442328,125.194551 C75.7201271,88.723692 156.231269,20.5988799 176.187022,7.52442104 C198.895292,-7.61442608 207.152845,4.77190338 207.152845,4.77190338 L276.653916,83.9067861 C279.406434,84.5949155 282.158952,85.2830449 285.599599,85.2830449 L323.446716,54.3172212 C326.887364,50.8765742 332.392399,50.1884448 337.209305,51.5647036 C342.026211,52.9409624 345.466858,56.3816095 346.843117,61.1985154 L359.229446,107.991316 C362.670093,109.367574 366.79887,110.743833 370.239517,112.120092 L414.279799,88.723692 C418.408576,85.9711743 423.913611,85.9711743 428.730517,88.723692 C432.859293,90.7880802 435.611811,94.9168567 435.611811,99.7337626 L438.364329,147.902822 C441.804976,149.96721 445.245623,152.719728 448.68627,154.784116 L496.1672,139.645269 C500.984105,138.26901 506.489141,138.957139 509.929788,141.709657 C514.058564,145.150304 516.122953,149.96721 515.434823,154.784116 L507.8654,202.265045 C510.617917,205.017563 513.370435,207.770081 516.811082,210.522598 L566.3564,205.017563 C571.173306,204.329434 575.990212,206.393822 579.430859,209.834469 C582.871506,213.963245 583.559635,218.780151 581.495247,223.597057 L564.980141,268.325469 C567.044529,271.766116 569.797047,275.206763 571.861435,278.64741 L621.406753,282.088058 C626.911788,282.088058 631.040565,285.528705 633.104953,289.657481 C635.857471,293.786258 635.857471,299.291293 633.104953,303.420069 L607.644165,344.707834 C609.020424,348.148481 610.396682,351.589128 611.772941,355.717905 L659.942,368.104234 C664.758906,369.480493 668.887683,372.92114 670.263941,377.738046 C671.6402,382.554952 670.263941,387.371858 666.823294,391.500634 L633.104953,427.283364 C633.793082,430.724011 635.169341,434.852788 635.857471,438.981564 L679.897753,460.313576 C684.714659,462.377964 687.467177,466.506741 688.155306,471.323647 C688.843436,476.140552 686.090918,480.957458 681.962142,483.709976 Z" id="Shape"></path>
                        </g>
                        <g id="Group" transform="translate(335.992831, 514.871779)" fill="#000000">
                            <path d="M72.2987602,82.4764297 C70.7823025,81.1823372 69.9876203,80.414995 69.9876203,80.414995 L199.890812,69.7733626 C93.9274201,-70.0168775 9.03586411,41.3416038 0,53.7922317 L0,82.4764297 L72.2987602,82.4764297 Z" id="Path"></path>
                        </g>
                        <g id="Group" transform="translate(556.240993, 511.871022)" fill="#000000">
                            <path d="M122.526864,83.9716657 C124.04241,82.6775732 124.838004,81.9084084 124.838004,81.9084084 L0,72.7741203 C106.013515,-72.7538707 185.792494,42.8350172 194.827447,55.2856451 L194.827447,83.9716657 L122.526864,83.9716657 Z" id="Path"></path>
                        </g>
                        <g id="Group" transform="translate(735.584890, 578.817176) scale(-1, 1) rotate(-89.999997) translate(-735.584890, -578.817176) translate(613.825361, 399.587831)" fill="url(#linearGradient-2)" fill-rule="nonzero">
                            <path d="M243.519058,36.5277199 C243.519058,36.5277199 187.022851,50.6517716 127.604427,139.048854 L121.759992,163.644185 C121.759992,163.644185 267.870871,243.761651 103.252614,357.2411 C103.252614,357.2411 123.708137,321.930971 98.625769,227.202418 C98.625769,227.202418 31.9018008,270.792163 34.0934639,358.458691 C34.0934639,358.458691 -66.966561,274.444935 78.9008003,146.354398 C78.9008003,146.354398 131.257199,10.958316 243.519058,0 L243.519058,36.5277199 Z" id="Path"></path>
                        </g>
                        <g id="Group" transform="translate(600.124702, 365.346386)" fill="#000000">
                            <path d="M15.0977457,19.2858259 C15.0977457,19.2858259 54.7279612,-24.1072824 94.3599993,19.2858259 C94.3599993,19.2858259 125.500239,77.1481642 94.3599993,106.075688 C94.3599993,106.075688 43.4055632,146.57896 15.0977457,106.075688 C15.0977457,106.075688 -18.8721821,74.2510374 15.0977457,19.2858259" id="Path"></path>
                        </g>
                        <g id="Group" transform="translate(616.618610, 370.132908)" fill="#FFFFFF" fill-rule="nonzero">
                            <path d="M44.4857963,30.5970854 C44.4857963,47.4941057 34.5249295,61.1923481 22.2419868,61.1923481 C9.9599555,61.1923481 0,47.4941057 0,30.5970854 C0,13.7000651 9.9599555,0 22.2419868,0 C34.5249295,0 44.4857963,13.7000651 44.4857963,30.5970854" id="Path"></path>
                        </g>
                        <g id="Group" transform="translate(415.601386, 366.060657)" fill="#000000">
                            <path d="M22.738668,6.72240679 C22.738668,6.72240679 90.7204449,-23.3770909 109.275179,43.8054473 C109.275179,43.8054473 128.711173,122.112624 53.4478472,126.532588 C53.4478472,126.532588 -42.5246035,108.048026 22.738668,6.72240679" id="Path"></path>
                        </g>
                        <g id="Group" transform="translate(426.603911, 370.282366)" fill="#FFFFFF" fill-rule="nonzero">
                            <path d="M45.8801354,31.5567187 C45.8801354,48.9804894 35.6094154,63.1134375 22.9391564,63.1134375 C10.273454,63.1134375 0,48.9804894 0,31.5567187 C0,14.1283914 10.273454,0 22.9391564,0 C35.6094154,0 45.8801354,14.1283914 45.8801354,31.5567187" id="Path"></path>
                        </g>
                        <g id="Group" transform="translate(364.395420, 601.823859) scale(-1, 1) rotate(-89.999996) translate(-364.395420, -601.823859) translate(255.481589, 434.096559)" fill="url(#linearGradient-3)" fill-rule="nonzero">
                            <path d="M79.9360126,195.827069 C-79.2960087,71.665301 48.5688292,12.8518321 48.5688292,12.8518321 C56.410625,82.5566841 102.807917,132.003564 102.807917,132.003564 C113.481473,48.3577411 114.352783,-1.87082516e-14 114.352783,-1.87082516e-14 C262.039939,111.963419 128.293754,202.797554 128.293754,202.797554 C136.571205,225.451631 168.156216,248.759191 197.345123,265.967576 L217.820923,335.4546 C81.8964616,255.511848 79.9360126,195.827069 79.9360126,195.827069 Z" id="Path"></path>
                        </g>
                    </g>
                </g>
            </g>
        </g>
    </g>
</svg>
